T: Memories Of Father Angus MacDonnell
M: 4/4
L: 1/8
K: Cmaj
K: C Maj
|: (3GAB |c>B cd cB AG | e<g ge g2 (3efg | af ge fd ec | A<d dB cB AG |
cc/B/ cd cB AG | e<g (3gfe gc c’a | g>e (3cde dc de | c2 c>B c2 :|
|: eg |a2 (3fga c'd'/c'/ ba | g2 c'a g2 eg | af ge fd ec | A<d dB cB AG |
cc/B/ cd cB AG | e<g ge g2 c'>a | g>e (3cde dc de | c2 c>B c2 :|
